X: 6
T: Michael Creamer's
T: The Burren
M: 4/4
L: 1/8
R: reel
K: Dmaj
|: dB |\
A3 B AFDF | AFAd ~f3 g | afef dB ~B2 | dBAF FEDF |
A3 B AFDF | AFAd ~f3 g | afef dB ~B2 | Adfe d2 :|
|: de |\
fded BAFA | dcdf ~a3 f | gefd edBc | dBAF FEDF |
A3 B AFDF | AFAd ~f3 g | afef dB ~B2 | Adfe d2 :|
(alternate possible endings ~ | Adfe de | / | A2 fe d2 | / | Agfe d2 |)
